X: 6
T: Missa Pro defunctis / Dies irae
N: Derived from Bru1011c-Missa_Pro_defunctis-Dies_irae-Sequence.krn
C: Antoine Brumel
%%abc-version 2.0
%%abcx-abcm2ps-target-version 5.9.1 (29 Sep 2008)
%%abc-creator hum2abc beta
%%abcx-conversion-date 2019/02/16 20:23:56
%%abc-edited-by Jesse Rodin
%%abc-edited-by Chris Gage 02-12-2014, 06-18-2014 (text)
%%abcx-initial-encoding-date 2014/08/07/
%%humdrum-veritas 943864958
%%humdrum-veritas-data 1581025591
%%linebreak <none>
%%barnumbers 0
L: 1/4
M: 2/1
Q: 1/2=120
%%staves [1 2 3 4]
V: 1 clef=treble
V: 2 clef=treble-8
V: 3 clef=treble-8
V: 4 clef=bass
K: C
[V:1] z4F4- | 
[V:2] c8 | 
[V:3] z4F4- | 
[V:4] F,8 | 
[V:1] F4E4 | 
[V:2] B4c4 | 
[V:3] F4G2A2- | 
[V:4] D,4C,4 | 
[V:1] F4D4- | 
[V:2] A8 | 
[V:3] A2F2F4 | 
[V:4] D,8 | 
[V:1] D4E4 | 
[V:2] B4c3B | 
[V:3] G8 | 
[V:4] G,,4C,4- | 
[V:1] C8 | 
[V:2] G4A4 | 
[V:3] E8 | 
[V:4] C,4A,,4 | 
[V:1] D4D2E2- | 
[V:2] A2B3AA2- | 
[V:3] F4G2E2 | 
[V:4] D,4G,,2C,2 | 
[V:1] EDD4^C2 | 
[V:2] A2G2A4 | 
[V:3] C2D2E4 | 
[V:4] A,,2B,,2A,,4 | 
[V:1] D4z4 | 
[V:2] z4c4 | 
[V:3] z2D2G4 | 
[V:4] D,4C,4 | 
[V:1] F4E2G2 | 
[V:2] B2d2c3B | 
[V:3] F4G4 | 
[V:4] D,4E,4 | 
[V:1] F3EG4 | 
[V:2] d4B4- | 
[V:3] A4G4 | 
[V:4] D,4z2E,2- | 
[V:1] z4F4 | 
[V:2] B2c4c2 | 
[V:3] z2G2A4 | 
[V:4] E,2C,2F,4 | 
[V:1] E4D4 | 
[V:2] c4A4- | 
[V:3] G4F4 | 
[V:4] C,4D,4 | 
[V:1] C4z4 | 
[V:2] A4A2B2 | 
[V:3] E4F4 | 
[V:4] A,,4D,4 | 
[V:1] E3FG3F/E/ | 
[V:2] c4c4 | 
[V:3] G3FE2E2 | 
[V:4] C,8 | 
[V:1] F2E4D2- | 
[V:2] A2c3BAG | 
[V:3] D2G4F2 | 
[V:4] D,2C,4D,2 | 
[V:1] D2^C2D4 | 
[V:2] A8 | 
[V:3] E4D4 | 
[V:4] A,,4z2D,2 | 
[V:1] z4A,3B, | 
[V:2] z2d3c/B/A2- | 
[V:3] z2F2F4 | 
[V:4] D,8 | 
[V:1] C2D4^C2 | 
[V:2] A2G2A4- | 
[V:3] E2D2E4 | 
[V:4] A,,2B,,2A,,4 | 
[V:1] D4z2F2 | 
[V:2] A4z2A2 | 
[V:3] D8 | 
[V:4] z4D,4- | 
[V:1] F4E4- | 
[V:2] d4c4- | 
[V:3] z2A2A4 | 
[V:4] D,4A,,4 | 
[V:1] E4G4 | 
[V:2] c4d4 | 
[V:3] G4_B4 | 
[V:4] C,4G,,4 | 
[V:1] F2E3DD2- | 
[V:2] c4c2A2- | 
[V:3] A2G4F2 | 
[V:4] A,,2C,4D,2 | 
[V:1] D2^C2D4 ||  
[V:2] A4A4 ||  
[V:3] E4D4 ||  
[V:4] A,,4D,4 ||  
[V:1]  [K:C] [K:clef=treble][M:2/1]F8 | 
[V:2]  [K:C] [K:clef=treble-8][M:2/1]d8 | 
[V:3]  [K:C] [K:clef=treble-8][M:2/1]A4A2B2 | 
[V:4]  [K:C] [K:clef=bass][M:2/1]D,8 | 
[V:1] E8 | 
[V:2] G6A2 | 
[V:3] c4c4- | 
[V:4] C,6A,,2 | 
[V:1] E4D2E2 | 
[V:2] A3GF2E2 | 
[V:3] c4B2A2- | 
[V:4] A,,4D,2C,2 | 
[V:1] F2G2C4 | 
[V:2] D4E4 | 
[V:3] A2G2A4 | 
[V:4] _B,,4A,,4- | 
[V:1] z2E2E4- | 
[V:2] A3Bc4- | 
[V:3] z4A4 | 
[V:4] A,,4A,,4 | 
[V:1] E4F2D2 | 
[V:2] c4B4 | 
[V:3] G2G4F2 | 
[V:4] C,4D,4 | 
[V:1] E8 | 
[V:2] c8 | 
[V:3] G4A4- | 
[V:4] C,4A,,4 | 
[V:1] F4E4 | 
[V:2] d4c4 | 
[V:3] A4A4 | 
[V:4] D,4A,,4 | 
[V:1] z2D3CB,2 | 
[V:2] F4G4 | 
[V:3] D8 | 
[V:4] B,,4G,,4 | 
[V:1] A,2D2C4 | 
[V:2] A2A2A4 | 
[V:3] F4E4 | 
[V:4] D,4A,,4 | 
[V:1] z8 | 
[V:2] A4B4 | 
[V:3] F4D4 | 
[V:4] D,4G,,4 | 
[V:1] z8 | 
[V:2] G2A2F2G2 | 
[V:3] E4D2D2- | 
[V:4] C,2A,,2_B,,2G,,2 | 
[V:1] z4F3G | 
[V:2] E4z2D2 | 
[V:3] D2^C2D4 | 
[V:4] A,,4z4 | 
[V:1] A8 | 
[V:2] F3GA2d2 | 
[V:3] z4F4 | 
[V:4] D,8 | 
[V:1] G4F4 | 
[V:2] B2c2d4 | 
[V:3] G4A4 | 
[V:4] E,4D,4 | 
[V:1] F4E2D2- | 
[V:2] c6A2 | 
[V:3] A4G2F2 | 
[V:4] F,4C,2D,2 | 
[V:1] D2^C2D4 | 
[V:2] A4z2A2 | 
[V:3] E4D4 | 
[V:4] A,,4z2D,2- | 
[V:1] z2D2C4 | 
[V:2] F2G2A4- | 
[V:3] z4E4 | 
[V:4] D,2_B,,2A,,4 | 
[V:1] D3C/B,/C4 | 
[V:2] A4A4 | 
[V:3] F4E4 | 
[V:4] D,4A,,4 | 
[V:1] D2E3DD2- | 
[V:2] B2c2F2G2 | 
[V:3] F2G2D4 | 
[V:4] D,2C,2B,,4 | 
[V:1] D2^C2D4 ||  
[V:2] A8 ||  
[V:3] E4D4 ||  
[V:4] A,,4D,4 ||  
[V:1]  [K:C] [K:clef=treble][M:2/1]A8 | 
[V:2]  [K:C] [K:clef=treble-8][M:2/1]A3Bc2d2 | 
[V:3]  [K:C] [K:clef=treble-8][M:2/1]z8 | 
[V:4]  [K:C] [K:clef=bass][M:2/1]z8 | 
[V:1] G4F4 | 
[V:2] B2c2dc/B/A2 | 
[V:3] z8 | 
[V:4] z8 | 
[V:1] G4A3G | 
[V:2] z2G2c3B | 
[V:3] z8 | 
[V:4] z8 | 
[V:1] F2E3DD2- | 
[V:2] A2G2F2G2 | 
[V:3] z8 | 
[V:4] z8 | 
[V:1] D2^C2D4 | 
[V:2] E4z2D2- | 
[V:3] z8 | 
[V:4] z8 | 
[V:1] z4D4 | 
[V:2] D2G2F2G2 | 
[V:3] z8 | 
[V:4] z8 | 
[V:1] C4A,3B, | 
[V:2] E2A3GF2 | 
[V:3] z8 | 
[V:4] z8 | 
[V:1] C2D4^C2 | 
[V:2] E2DF2GE2 | 
[V:3] z8 | 
[V:4] z8 | 
[V:1] D4z4 | 
[V:2] z2D2F2G2 | 
[V:3] z8 | 
[V:4] z8 | 
[V:1] F4E4 | 
[V:2] D2d2cA2c | 
[V:3] z8 | 
[V:4] z8 | 
[V:1] D4C4 | 
[V:2] BG2BA4 | 
[V:3] z8 | 
[V:4] z8 | 
[V:1] A,4z2C2 | 
[V:2] F2D2E4 | 
[V:3] z8 | 
[V:4] z8 | 
[V:1] D3EF4 | 
[V:2] z2D2D3C/B,/ | 
[V:3] z8 | 
[V:4] z8 | 
[V:1] E2D4^C2 | 
[V:2] C2D2E4 | 
[V:3] z8 | 
[V:4] z8 | 
[V:1] D4z4 | 
[V:2] D8 | 
[V:3] z8 | 
[V:4] z8 | 
[V:1] A4F4 | 
[V:2] z2d3c/B/A2 | 
[V:3] z8 | 
[V:4] z8 | 
[V:1] G4D4 | 
[V:2] G2c2B2G2 | 
[V:3] z8 | 
[V:4] z8 | 
[V:1] z2C2D2F2 | 
[V:2] A3GFED2 | 
[V:3] z8 | 
[V:4] z8 | 
[V:1] E2G2F2E2- | 
[V:2] C2E2D2G2 | 
[V:3] z8 | 
[V:4] z8 | 
[V:1] E2D4^C2 | 
[V:2] A2F2E4 | 
[V:3] z8 | 
[V:4] z8 | 
[V:1] D8 ||  
[V:2] D8 ||  
[V:3] z8 ||  
[V:4] z8 ||  
[V:1]  [K:C] [K:clef=treble][M:2/1]F8 | 
[V:2]  [K:C] [K:clef=treble-8][M:2/1]c4d4 | 
[V:3]  [K:C] [K:clef=treble-8][M:2/1]F8 | 
[V:4]  [K:C] [K:clef=bass][M:2/1]F,4D,4 | 
[V:1] E4F4 | 
[V:2] B2c2d3c/B/ | 
[V:3] G4A4 | 
[V:4] E,4D,4- | 
[V:1] D4E4- | 
[V:2] A2B2c4- | 
[V:3] F4G4 | 
[V:4] D,4C,4 | 
[V:1] E4C4 | 
[V:2] c4A4- | 
[V:3] A3G/F/E4 | 
[V:4] A,,8 | 
[V:1] D2E4D2- | 
[V:2] A4_B4 | 
[V:3] F2E2F2G2 | 
[V:4] D,2C,2_B,,2G,,2 | 
[V:1] D2^C2D4- | 
[V:2] A4A4 | 
[V:3] E4D4 | 
[V:4] A,,4z4 | 
[V:1] D4z4 | 
[V:2] z2A2A4- | 
[V:3] z4F4 | 
[V:4] D,8 | 
[V:1] z4F4 | 
[V:2] A4A2B2 | 
[V:3] E4F4 | 
[V:4] A,,4D,4 | 
[V:1] E4F4 | 
[V:2] c4A2d2- | 
[V:3] G4F2A2- | 
[V:4] C,4D,4 | 
[V:1] G4F4 | 
[V:2] d2c2d4 | 
[V:3] A2G2A4- | 
[V:4] E,4D,4 | 
[V:1] E4D4- | 
[V:2] c4_B4- | 
[V:3] A4F4 | 
[V:4] A,,4_B,,4 | 
[V:1] D4C4 | 
[V:2] B4A4 | 
[V:3] G4E4 | 
[V:4] G,,4A,,4- | 
[V:1] z4E4 | 
[V:2] c8 | 
[V:3] A4G4 | 
[V:4] A,,4C,3B,, | 
[V:1] F2G2F2E2- | 
[V:2] c2d4B2 | 
[V:3] A2_B2A2G2- | 
[V:4] A,,2G,,2D,2E,2 | 
[V:1] E2D4^C2 | 
[V:2] c2A2A4- | 
[V:3] G2F2E4 | 
[V:4] C,2D,2A,,4 | 
[V:1] D4z4 | 
[V:2] A4z2A2 | 
[V:3] D4z4 | 
[V:4] z4D,4- | 
[V:1] A,4A,3B, | 
[V:2] d4d2A2- | 
[V:3] F8 | 
[V:4] D,4D,4 | 
[V:1] C4D2D2- | 
[V:2] A2A2F2G2 | 
[V:3] E4D4 | 
[V:4] A,,4B,,4 | 
[V:1] D2^C2D4 | 
[V:2] A8 | 
[V:3] E4D4 | 
[V:4] A,,4z4 | 
[V:1] z2D2D4- | 
[V:2] z2G2A4 | 
[V:3] z2D2F4- | 
[V:4] D,8 | 
[V:1] D8 | 
[V:2] _B8 | 
[V:3] F4G4 | 
[V:4] _B,,4G,,4 | 
[V:1] C4z2E2- | 
[V:2] A3Bc4- | 
[V:3] E4A4 | 
[V:4] A,,4A,,3B,, | 
[V:1] E4F4- | 
[V:2] c4z2c2 | 
[V:3] G4A4- | 
[V:4] C,4F,,4- | 
[V:1] F4E3D | 
[V:2] c4c3B | 
[V:3] A4G3F | 
[V:4] F,,4C,4- | 
[V:1] C2D4^C2 | 
[V:2] A2G2A4- | 
[V:3] E2D2E4 | 
[V:4] C,2B,,2A,,4 | 
[V:1] D8 ||  
[V:2] A8 ||  
[V:3] D8 ||  
[V:4] D,8 ||  
[V:1]  [K:C] [K:clef=treble][M:2/1]F8 | 
[V:2]  [K:C] [K:clef=treble-8][M:2/1]d8 | 
[V:3]  [K:C] [K:clef=treble-8][M:2/1]A4A2B2 | 
[V:4]  [K:C] [K:clef=bass][M:2/1]D,8 | 
[V:1] E8 | 
[V:2] G6A2 | 
[V:3] c4c4- | 
[V:4] C,6A,,2 | 
[V:1] E4D2E2 | 
[V:2] A3GF2E2 | 
[V:3] c4B2A2- | 
[V:4] A,,4D,2C,2 | 
[V:1] F2G2C4 | 
[V:2] D4E4 | 
[V:3] A2G2A4 | 
[V:4] _B,,4A,,4- | 
[V:1] z2E2E4- | 
[V:2] A3Bc4- | 
[V:3] z4A4 | 
[V:4] A,,4A,,4 | 
[V:1] E4F2D2 | 
[V:2] c4B4 | 
[V:3] G2G4F2 | 
[V:4] C,4D,4 | 
[V:1] E8 | 
[V:2] c8 | 
[V:3] G4A4- | 
[V:4] C,4A,,4 | 
[V:1] F4E4 | 
[V:2] d4c4 | 
[V:3] A4A4 | 
[V:4] D,4A,,4 | 
[V:1] z2D3CB,2 | 
[V:2] F4G4 | 
[V:3] D8 | 
[V:4] B,,4G,,4 | 
[V:1] A,2D2C4 | 
[V:2] A2A2A4 | 
[V:3] F4E4 | 
[V:4] D,4A,,4 | 
[V:1] z8 | 
[V:2] A4B4 | 
[V:3] F4D4 | 
[V:4] D,4G,,4 | 
[V:1] z8 | 
[V:2] G2A2F2G2 | 
[V:3] E4D2D2- | 
[V:4] C,2A,,2_B,,2G,,2 | 
[V:1] z4F3G | 
[V:2] E4z2D2 | 
[V:3] D2^C2D4 | 
[V:4] A,,4z4 | 
[V:1] A8 | 
[V:2] F3GA2d2 | 
[V:3] z4F4 | 
[V:4] D,8 | 
[V:1] G4F4 | 
[V:2] B2c2d4 | 
[V:3] G4A4 | 
[V:4] E,4D,4 | 
[V:1] F4E2D2- | 
[V:2] c6A2 | 
[V:3] A4G2F2 | 
[V:4] F,4C,2D,2 | 
[V:1] D2^C2D4 | 
[V:2] A4z2A2 | 
[V:3] E4D4 | 
[V:4] A,,4z2D,2- | 
[V:1] z2D2C4 | 
[V:2] F2G2A4- | 
[V:3] z4E4 | 
[V:4] D,2_B,,2A,,4 | 
[V:1] D3C/B,/C4 | 
[V:2] A4A4 | 
[V:3] F4E4 | 
[V:4] D,4A,,4 | 
[V:1] D2E3DD2- | 
[V:2] B2c2F2G2 | 
[V:3] F2G2D4 | 
[V:4] D,2C,2B,,4 | 
[V:1] D2^C2D4 ||  
[V:2] A8 ||  
[V:3] E4D4 ||  
[V:4] A,,4D,4 ||  
[V:1]  [K:C] [K:clef=treble][M:2/1]A8 | 
[V:2]  [K:C] [K:clef=treble-8][M:2/1]d3ef4 | 
[V:3]  [K:C] [K:clef=treble-8][M:2/1]A4d4- | 
[V:4]  [K:C] [K:clef=bass][M:2/1]D,8 | 
[V:1] _B4G4 | 
[V:2] f4e4 | 
[V:3] d4c4 | 
[V:4] _B,,4C,4 | 
[V:1] F8 | 
[V:2] d8 | 
[V:3] A8 | 
[V:4] D,8 | 
[V:1] G4A4 | 
[V:2] d2e2f4 | 
[V:3] B4c4- | 
[V:4] G,4F,4 | 
[V:1] G4F2E2- | 
[V:2] e4d2c2 | 
[V:3] c4A4 | 
[V:4] C,4D,2A,,2 | 
[V:1] EDD4^C2 | 
[V:2] d2G2A4 | 
[V:3] F2D2E4 | 
[V:4] _B,,4A,,4 | 
[V:1] D8 | 
[V:2] z2A2A2B2 | 
[V:3] D4z2F2 | 
[V:4] z4D,4 | 
[V:1] z4F4 | 
[V:2] c8- | 
[V:3] G4A4 | 
[V:4] C,4F,,4 | 
[V:1] E4D4 | 
[V:2] c4A4 | 
[V:3] G4F4 | 
[V:4] C,4D,4 | 
[V:1] D4C4 | 
[V:2] B4A3G/F/ | 
[V:3] G4E4 | 
[V:4] G,,4A,,4- | 
[V:1] z4A,4 | 
[V:2] E4z2A2 | 
[V:3] A3G/F/E2F2 | 
[V:4] A,,4A,,4- | 
[V:1] C4D3E | 
[V:2] A4A4 | 
[V:3] E4D2F2- | 
[V:4] A,,4D,4- | 
[V:1] F4E2F2- | 
[V:2] A2B2c4 | 
[V:3] FEF2G2A2 | 
[V:4] D,4C,2F,,2 | 
[V:1] FED4^C2 | 
[V:2] F2G2A4 | 
[V:3] D4E4 | 
[V:4] _B,,4A,,4 | 
[V:1] D4z4 | 
[V:2] z2d2f4- | 
[V:3] D4z2A2 | 
[V:4] z2D,2D,4 | 
[V:1] A8 | 
[V:2] f4f4- | 
[V:3] d4c4 | 
[V:4] D,3E,F,4 | 
[V:1] _B4A4 | 
[V:2] f8 | 
[V:3] d4c4- | 
[V:4] _B,,4F,4 | 
[V:1] G4F4 | 
[V:2] e4d4- | 
[V:3] c4A4 | 
[V:4] C,4D,4 | 
[V:1] G4D4 | 
[V:2] d4B4 | 
[V:3] B3AG3F | 
[V:4] G,,8 | 
[V:1] C4D4 | 
[V:2] A4A2B2 | 
[V:3] E4F4 | 
[V:4] A,,4D,4 | 
[V:1] E8 | 
[V:2] c4B2c2 | 
[V:3] G8 | 
[V:4] C,4E,4 | 
[V:1] F4G4 | 
[V:2] d4B4 | 
[V:3] A4G4- | 
[V:4] D,4E,4 | 
[V:1] E4D4 | 
[V:2] c4B4 | 
[V:3] G4F4 | 
[V:4] C,4D,4 | 
[V:1] ^C2C4B,C | 
[V:2] A8- | 
[V:3] E8 | 
[V:4] A,,8 | 
[V:1] D8 ||  
[V:2] A8 ||  
[V:3] D8 ||  
[V:4] D,8 ||  
[V:1]  [K:C] [K:clef=treble][M:2/1]F8 | 
[V:2]  [K:C] [K:clef=treble-8][M:2/1]c4d4 | 
[V:3]  [K:C] [K:clef=treble-8][M:2/1]F8 | 
[V:4]  [K:C] [K:clef=bass][M:2/1]F,4D,4 | 
[V:1] E4F4 | 
[V:2] B2c2d3c/B/ | 
[V:3] G4A4 | 
[V:4] E,4D,4- | 
[V:1] D4E4- | 
[V:2] A2B2c4- | 
[V:3] F4G4 | 
[V:4] D,4C,4 | 
[V:1] E4C4 | 
[V:2] c4A4- | 
[V:3] A3G/F/E4 | 
[V:4] A,,8 | 
[V:1] D2E4D2- | 
[V:2] A4_B4 | 
[V:3] F2E2F2G2 | 
[V:4] D,2C,2_B,,2G,,2 | 
[V:1] D2^C2D4- | 
[V:2] A4A4 | 
[V:3] E4D4 | 
[V:4] A,,4z4 | 
[V:1] D4z4 | 
[V:2] z2A2A4- | 
[V:3] z4F4 | 
[V:4] D,8 | 
[V:1] z4F4 | 
[V:2] A4A2B2 | 
[V:3] E4F4 | 
[V:4] A,,4D,4 | 
[V:1] E4F4 | 
[V:2] c4A2d2- | 
[V:3] G4F2A2- | 
[V:4] C,4D,4 | 
[V:1] G4F4 | 
[V:2] d2c2d4 | 
[V:3] A2G2A4- | 
[V:4] E,4D,4 | 
[V:1] E4D4- | 
[V:2] c4_B4- | 
[V:3] A4F4 | 
[V:4] A,,4_B,,4 | 
[V:1] D4C4 | 
[V:2] B4A4 | 
[V:3] G4E4 | 
[V:4] G,,4A,,4- | 
[V:1] z4E4 | 
[V:2] c8 | 
[V:3] A4G4 | 
[V:4] A,,4C,3B,, | 
[V:1] F2G2F2E2- | 
[V:2] c2d4B2 | 
[V:3] A2_B2A2G2- | 
[V:4] A,,2G,,2D,2E,2 | 
[V:1] E2D4^C2 | 
[V:2] c2A2A4- | 
[V:3] G2F2E4 | 
[V:4] C,2D,2A,,4 | 
[V:1] D4z4 | 
[V:2] A4z2A2 | 
[V:3] D4z4 | 
[V:4] z4D,4- | 
[V:1] A,4A,3B, | 
[V:2] d4d2A2- | 
[V:3] F8 | 
[V:4] D,4D,4 | 
[V:1] C4D2D2- | 
[V:2] A2A2F2G2 | 
[V:3] E4D4 | 
[V:4] A,,4B,,4 | 
[V:1] D2^C2D4 | 
[V:2] A8 | 
[V:3] E4D4 | 
[V:4] A,,4z4 | 
[V:1] z2D2D4- | 
[V:2] z2G2A4 | 
[V:3] z2D2F4- | 
[V:4] D,8 | 
[V:1] D8 | 
[V:2] _B8 | 
[V:3] F4G4 | 
[V:4] _B,,4G,,4 | 
[V:1] C4z2E2- | 
[V:2] A3Bc4- | 
[V:3] E4A4 | 
[V:4] A,,4A,,3B,, | 
[V:1] E4F4- | 
[V:2] c4z2c2 | 
[V:3] G4A4- | 
[V:4] C,4F,,4- | 
[V:1] F4E3D | 
[V:2] c4c3B | 
[V:3] A4G3F | 
[V:4] F,,4C,4- | 
[V:1] C2D4^C2 | 
[V:2] A2G2A4- | 
[V:3] E2D2E4 | 
[V:4] C,2B,,2A,,4 | 
[V:1] D8 ||  
[V:2] A8 ||  
[V:3] D8 ||  
[V:4] D,8 ||  
[V:1]  [K:C] [K:clef=treble][M:2/1]A8 | 
[V:2]  [K:C] [K:clef=treble-8][M:2/1]A3Bc2d2 | 
[V:3]  [K:C] [K:clef=treble-8][M:2/1]z8 | 
[V:4]  [K:C] [K:clef=bass][M:2/1]z8 | 
[V:1] G4F4 | 
[V:2] B2c2dc/B/A2 | 
[V:3] z8 | 
[V:4] z8 | 
[V:1] G4A3G | 
[V:2] z2G2c3B | 
[V:3] z8 | 
[V:4] z8 | 
[V:1] F2E3DD2- | 
[V:2] A2G2F2G2 | 
[V:3] z8 | 
[V:4] z8 | 
[V:1] D2^C2D4 | 
[V:2] E4z2D2- | 
[V:3] z8 | 
[V:4] z8 | 
[V:1] z4D4 | 
[V:2] D2G2F2G2 | 
[V:3] z8 | 
[V:4] z8 | 
[V:1] C4A,3B, | 
[V:2] E2A3GF2 | 
[V:3] z8 | 
[V:4] z8 | 
[V:1] C2D4^C2 | 
[V:2] E2DF2GE2 | 
[V:3] z8 | 
[V:4] z8 | 
[V:1] D4z4 | 
[V:2] z2D2F2G2 | 
[V:3] z8 | 
[V:4] z8 | 
[V:1] F4E4 | 
[V:2] D2d2cA2c | 
[V:3] z8 | 
[V:4] z8 | 
[V:1] D4C4 | 
[V:2] BG2BA4 | 
[V:3] z8 | 
[V:4] z8 | 
[V:1] A,4z2C2 | 
[V:2] F2D2E4 | 
[V:3] z8 | 
[V:4] z8 | 
[V:1] D3EF4 | 
[V:2] z2D2D3C/B,/ | 
[V:3] z8 | 
[V:4] z8 | 
[V:1] E2D4^C2 | 
[V:2] C2D2E4 | 
[V:3] z8 | 
[V:4] z8 | 
[V:1] D4z4 | 
[V:2] D8 | 
[V:3] z8 | 
[V:4] z8 | 
[V:1] A4F4 | 
[V:2] z2d3c/B/A2 | 
[V:3] z8 | 
[V:4] z8 | 
[V:1] G4D4 | 
[V:2] G2c2B2G2 | 
[V:3] z8 | 
[V:4] z8 | 
[V:1] z2C2D2F2 | 
[V:2] A3GFED2 | 
[V:3] z8 | 
[V:4] z8 | 
[V:1] E2G2F2E2- | 
[V:2] C2E2D2G2 | 
[V:3] z8 | 
[V:4] z8 | 
[V:1] E2D4^C2 | 
[V:2] A2F2E4 | 
[V:3] z8 | 
[V:4] z8 | 
[V:1] D8 ||  
[V:2] D8 ||  
[V:3] z8 ||  
[V:4] z8 ||  
[V:1]  [K:C] [K:clef=treble][M:2/1]A8 | 
[V:2]  [K:C] [K:clef=treble-8][M:2/1]d3ef4 | 
[V:3]  [K:C] [K:clef=treble-8][M:2/1]A4d4- | 
[V:4]  [K:C] [K:clef=bass][M:2/1]D,8 | 
[V:1] _B4G4 | 
[V:2] f4e4 | 
[V:3] d4c4 | 
[V:4] _B,,4C,4 | 
[V:1] F8 | 
[V:2] d8 | 
[V:3] A8 | 
[V:4] D,8 | 
[V:1] G4A4 | 
[V:2] d2e2f4 | 
[V:3] B4c4- | 
[V:4] G,4F,4 | 
[V:1] G4F2E2- | 
[V:2] e4d2c2 | 
[V:3] c4A4 | 
[V:4] C,4D,2A,,2 | 
[V:1] EDD4^C2 | 
[V:2] d2G2A4 | 
[V:3] F2D2E4 | 
[V:4] _B,,4A,,4 | 
[V:1] D8 | 
[V:2] z2A2A2B2 | 
[V:3] D4z2F2 | 
[V:4] z4D,4 | 
[V:1] z4F4 | 
[V:2] c8- | 
[V:3] G4A4 | 
[V:4] C,4F,,4 | 
[V:1] E4D4 | 
[V:2] c4A4 | 
[V:3] G4F4 | 
[V:4] C,4D,4 | 
[V:1] D4C4 | 
[V:2] B4A3G/F/ | 
[V:3] G4E4 | 
[V:4] G,,4A,,4- | 
[V:1] z4A,4 | 
[V:2] E4z2A2 | 
[V:3] A3G/F/E2F2 | 
[V:4] A,,4A,,4- | 
[V:1] C4D3E | 
[V:2] A4A4 | 
[V:3] E4D2F2- | 
[V:4] A,,4D,4- | 
[V:1] F4E2F2- | 
[V:2] A2B2c4 | 
[V:3] FEF2G2A2 | 
[V:4] D,4C,2F,,2 | 
[V:1] FED4^C2 | 
[V:2] F2G2A4 | 
[V:3] D4E4 | 
[V:4] _B,,4A,,4 | 
[V:1] D4z4 | 
[V:2] z2d2f4- | 
[V:3] D4z2A2 | 
[V:4] z2D,2D,4 | 
[V:1] A8 | 
[V:2] f4f4- | 
[V:3] d4c4 | 
[V:4] D,3E,F,4 | 
[V:1] _B4A4 | 
[V:2] f8 | 
[V:3] d4c4- | 
[V:4] _B,,4F,4 | 
[V:1] G4F4 | 
[V:2] e4d4- | 
[V:3] c4A4 | 
[V:4] C,4D,4 | 
[V:1] G4D4 | 
[V:2] d4B4 | 
[V:3] B3AG3F | 
[V:4] G,,8 | 
[V:1] C4D4 | 
[V:2] A4A2B2 | 
[V:3] E4F4 | 
[V:4] A,,4D,4 | 
[V:1] E8 | 
[V:2] c4B2c2 | 
[V:3] G8 | 
[V:4] C,4E,4 | 
[V:1] F4G4 | 
[V:2] d4B4 | 
[V:3] A4G4- | 
[V:4] D,4E,4 | 
[V:1] E4D4 | 
[V:2] c4B4 | 
[V:3] G4F4 | 
[V:4] C,4D,4 | 
[V:1] ^C2C4B,C | 
[V:2] A8- | 
[V:3] E8 | 
[V:4] A,,8 | 
[V:1] D8 ||  
[V:2] A8 ||  
[V:3] D8 ||  
[V:4] D,8 ||  
[V:1]  [K:C] [K:clef=treble][M:2/1]F8 | 
[V:2]  [K:C] [K:clef=treble-8][M:2/1]d8 | 
[V:3]  [K:C] [K:clef=treble-8][M:2/1]A4A2B2 | 
[V:4]  [K:C] [K:clef=bass][M:2/1]D,8 | 
[V:1] E8 | 
[V:2] G6A2 | 
[V:3] c4c4- | 
[V:4] C,6A,,2 | 
[V:1] E4D2E2 | 
[V:2] A3GF2E2 | 
[V:3] c4B2A2- | 
[V:4] A,,4D,2C,2 | 
[V:1] F2G2C4 | 
[V:2] D4E4 | 
[V:3] A2G2A4 | 
[V:4] _B,,4A,,4- | 
[V:1] z2E2E4- | 
[V:2] A3Bc4- | 
[V:3] z4A4 | 
[V:4] A,,4A,,4 | 
[V:1] E4F2D2 | 
[V:2] c4B4 | 
[V:3] G2G4F2 | 
[V:4] C,4D,4 | 
[V:1] E8 | 
[V:2] c8 | 
[V:3] G4A4- | 
[V:4] C,4A,,4 | 
[V:1] F4E4 | 
[V:2] d4c4 | 
[V:3] A4A4 | 
[V:4] D,4A,,4 | 
[V:1] z2D3CB,2 | 
[V:2] F4G4 | 
[V:3] D8 | 
[V:4] B,,4G,,4 | 
[V:1] A,2D2C4 | 
[V:2] A2A2A4 | 
[V:3] F4E4 | 
[V:4] D,4A,,4 | 
[V:1] z8 | 
[V:2] A4_B4 | 
[V:3] F4D4 | 
[V:4] D,4G,,4 | 
[V:1] z8 | 
[V:2] G2A2F2G2 | 
[V:3] E4D2D2- | 
[V:4] C,2A,,2_B,,2G,,2 | 
[V:1] z4F3G | 
[V:2] E4z2D2 | 
[V:3] D2^C2D4 | 
[V:4] A,,4z4 | 
[V:1] A8 | 
[V:2] F3GA2d2 | 
[V:3] z4F4 | 
[V:4] D,8 | 
[V:1] G4F4 | 
[V:2] B2c2d4 | 
[V:3] G4A4 | 
[V:4] E,4D,4 | 
[V:1] F4E2D2- | 
[V:2] c6A2 | 
[V:3] A4G2F2 | 
[V:4] F,4C,2D,2 | 
[V:1] D2^C2D4 | 
[V:2] A4z2A2 | 
[V:3] E4D4- | 
[V:4] A,,4z2D,2- | 
[V:1] z2D2C4 | 
[V:2] F2G2A4- | 
[V:3] D2z2E4 | 
[V:4] D,2_B,,2A,,4 | 
[V:1] D3C/B,/C4 | 
[V:2] A4A4 | 
[V:3] F4E4 | 
[V:4] D,4A,,4 | 
[V:1] D2E3DD2- | 
[V:2] B2c2F2G2 | 
[V:3] F2G2D4 | 
[V:4] D,2C,2_B,,4 | 
[V:1] D2^C2D4 ||  
[V:2] A8 ||  
[V:3] E4D4 ||  
[V:4] A,,4D,4 ||  
[V:1]  [K:C] [K:clef=treble][M:2/1]A8 | 
[V:2]  [K:C] [K:clef=treble-8][M:2/1]e8 | 
[V:3]  [K:C] [K:clef=treble-8][M:2/1]c8 | 
[V:4]  [K:C] [K:clef=bass][M:2/1]A,,8 | 
[V:1] G8 | 
[V:2] e8 | 
[V:3] c8 | 
[V:4] C,8 | 
[V:1] F8 | 
[V:2] d8 | 
[V:3] A8 | 
[V:4] D,8 | 
[V:1] !fermata!E8- | 
[V:2] !fermata!c8- | 
[V:3] A8 | 
[V:4] A,,8 | 
[V:1] E8 | 
[V:2] c8 | 
[V:3] !fermata!G8 | 
[V:4] !fermata!C,8 | 
[V:1] G8 | 
[V:2] e8 | 
[V:3] c8 | 
[V:4] C,6D,2 | 
[V:1] G8 | 
[V:2] e8 | 
[V:3] B8 | 
[V:4] E,8 | 
[V:1] !fermata!A8- | 
[V:2] c8 | 
[V:3] !fermata!A8- | 
[V:4] F,8 | 
[V:1] A8 | 
[V:2] !fermata!d8 | 
[V:3] A8 | 
[V:4] !fermata!D,8 | 
[V:1] F8- | 
[V:2] d8 | 
[V:3] A8 | 
[V:4] D,8- | 
[V:1] F8 | 
[V:2] A4B4 | 
[V:3] F8 | 
[V:4] D,8 | 
[V:1] E8- | 
[V:2] c8- | 
[V:3] G8 | 
[V:4] C,8 | 
[V:1] E8 | 
[V:2] c8 | 
[V:3] !fermata!A8- | 
[V:4] A,,8 | 
[V:1] !fermata!F8 | 
[V:2] !fermata!d8 | 
[V:3] A8 | 
[V:4] !fermata!D,8 | 
[V:1] G8 | 
[V:2] d8 | 
[V:3] G8 | 
[V:4] G,,8 | 
[V:1] D8 | 
[V:2] B8 | 
[V:3] G8 | 
[V:4] G,,8 | 
[V:1] ^C8 | 
[V:2] !fermata!A8- | 
[V:3] E8 | 
[V:4] A,,8 | 
[V:1] !fermata!D8 | 
[V:2] A8 | 
[V:3] !fermata!F8 | 
[V:4] !fermata!D,8 | 
[V:1] F8 | 
[V:2] d8 | 
[V:3] A8 | 
[V:4] D,8 | 
[V:1] E8 | 
[V:2] c8 | 
[V:3] A8 | 
[V:4] A,,8 | 
[V:1] !fermata!D8 | 
[V:2] !fermata!A8 | 
[V:3] !fermata!F8 | 
[V:4] !fermata!D,8 | 
[V:1] D8 | 
[V:2] A8 | 
[V:3] F8 | 
[V:4] D,8 | 
[V:1] E8 | 
[V:2] A8 | 
[V:3] E8 | 
[V:4] C,8 | 
[V:1] D8- | 
[V:2] _B8- | 
[V:3] F8 | 
[V:4] _B,,8 | 
[V:1] D8 | 
[V:2] B8 | 
[V:3] G8 | 
[V:4] G,,8 | 
[V:1] !fermata!C8 | 
[V:2] !fermata!A8 | 
[V:3] !fermata!E8 | 
[V:4] !fermata!A,,8 | 
[V:1] D6^CB, | 
[V:2] F4G4 | 
[V:3] D8 | 
[V:4] _B,,8 | 
[V:1] !fermata!^C8 | 
[V:2] !fermata!A8 | 
[V:3] !fermata!E8 | 
[V:4] !fermata!A,,8 | 
[V:1] D8 |]  
[V:2] A8 |]  
[V:3] D8 |]  
[V:4] D,8 |]  



